X:353
T:Panhandle Rag
C:Brad Davis and Greenbroke - Pickin' at the Pavillion Festival in Montrose, Co (2006)
N:mandolin: John Moore - Transcribed by Philippe Colleu
R:bluegrass
L:1/8
Q:1/4=212
M:4/4
K:C
"(106 bpm)"z3a za b2 | "D"d'4 d'3d' | "G"zd' zb zd' b2 | "D"d'2 b2 ab ab | c'a (3f^fa =f/e/d B2 | 
"A"dd cA c^G Ac | ^G/A/c cG Ac G/A/c | "D"c^G Ac (3GAc (3GAc | (3^GAc (3GAc (3GAc (3GAc | 
(3^GAA (3FED F^F AE/=F/ | "G"EB, D^F Ad cA | "D"Gc AF ^FD B,A, | D2 DF ^FA BA | 
"A"c/z/^c eB/=c/ B^F A^c | Aa ^ge =ge f^f | "D"dA F^F dA ^c=c | "D7"z4 zA EE | 
(3"G"FED EE (3FED EE | (3FED _B,=B, DE DA | (3"D"FEE DF ^Fd ^c=c | "D7"z2 cA cA A_B | 
"G"Bd ef ed Bd | BA F^F A=F EB, | "A"DC2B,2_B, (3zB,z | [E4A,4] zD A,C | "D"DC DC F^F D2 | 
"G"zD A,C DC F^F | "D"D3D A,C DF | ^Fd DF d2 AB | "A"^ca cA c^g zA | g2 ef ed BA | 
"D"dA (3cBA F^F DB, | DD G,C/z/ DC/z/ DA | D8 | 


